tools/download-figma-icons/icons/outlined-medium/play.svg

<svg width="24" height="24" viewBox="0 0 24 24" fill="none" xmlns="http://www.w3.org/2000/svg">
<path fill-rule="evenodd" clip-rule="evenodd" d="M8.54651 5.99859C8.47526 5.99859 8.41826 6.02334 8.38901 6.03984C8.32601 6.07509 8.24951 6.14184 8.24951 6.26334V17.7331C8.24951 17.8546 8.32601 17.9213 8.38976 17.9566C8.43776 17.9843 8.56976 18.0368 8.71301 17.9491L17.8743 12.2138C17.9838 12.1448 17.9995 12.0488 17.9995 11.9978C17.9995 11.9476 17.9838 11.8516 17.8743 11.7826L8.71301 6.04734C8.65376 6.01134 8.59601 5.99859 8.54651 5.99859ZM8.54426 19.4971C8.24126 19.4971 7.93751 19.4206 7.66301 19.2691C7.09151 18.9518 6.74951 18.3781 6.74951 17.7331V6.26332C6.74951 5.61757 7.09151 5.04457 7.66226 4.72807C8.24126 4.40707 8.94926 4.42657 9.50801 4.77607L18.6693 10.5113C19.189 10.8361 19.4995 11.3918 19.4995 11.9978C19.4995 12.6046 19.189 13.1603 18.6693 13.4851L9.50801 19.2203C9.21476 19.4041 8.87951 19.4971 8.54426 19.4971Z" fill="black"/>
</svg>

<svg width="24" height="24" viewBox="0 0 24 24" fill="none" xmlns="http://www.w3.org/2000/svg"><path fill-rule="evenodd" clip-rule="evenodd" d="M8.547 5.999a.328.328 0 0 0-.158.04.25.25 0 0 0-.14.224v11.47c0 .122.077.188.14.224.049.027.18.08.324-.008l9.161-5.735a.249.249 0 0 0 0-.431L8.713 6.047A.32.32 0 0 0 8.547 6Zm-.003 13.498a1.82 1.82 0 0 1-.881-.228 1.74 1.74 0 0 1-.913-1.536V6.263c0-.645.342-1.218.912-1.535a1.82 1.82 0 0 1 1.846.048l9.161 5.735a1.746 1.746 0 0 1 0 2.974L9.508 19.22a1.815 1.815 0 0 1-.964.277Z" fill="currentColor"/></svg>
